src/assets/outline/Timer1.svg

<?xml version="1.0" encoding="UTF-8"?>
<svg width="24" height="24" viewBox="0 0 24 24" xmlns="http://www.w3.org/2000/svg">
 <path d="m12 22.75c-5.24 0-9.5-4.26-9.5-9.5s4.26-9.5 9.5-9.5 9.5 4.26 9.5 9.5-4.26 9.5-9.5 9.5zm0-17.5c-4.41 0-8 3.59-8 8s3.59 8 8 8 8-3.59 8-8-3.59-8-8-8z"/>
 <path d="m12 13.75c-0.41 0-0.75-0.34-0.75-0.75v-5c0-0.41 0.34-0.75 0.75-0.75s0.75 0.34 0.75 0.75v5c0 0.41-0.34 0.75-0.75 0.75z"/>
 <path d="m15 2.75h-6c-0.41 0-0.75-0.34-0.75-0.75s0.34-0.75 0.75-0.75h6c0.41 0 0.75 0.34 0.75 0.75s-0.34 0.75-0.75 0.75z"/>
</svg>

<svg width="24" height="24" viewBox="0 0 24 24"  xmlns="http://www.w3.org/2000/svg">
<path d="M12 22.75C6.76 22.75 2.5 18.49 2.5 13.25C2.5 8.01 6.76 3.75 12 3.75C17.24 3.75 21.5 8.01 21.5 13.25C21.5 18.49 17.24 22.75 12 22.75ZM12 5.25C7.59 5.25 4 8.84 4 13.25C4 17.66 7.59 21.25 12 21.25C16.41 21.25 20 17.66 20 13.25C20 8.84 16.41 5.25 12 5.25Z" />
<path d="M12 13.75C11.59 13.75 11.25 13.41 11.25 13V8C11.25 7.59 11.59 7.25 12 7.25C12.41 7.25 12.75 7.59 12.75 8V13C12.75 13.41 12.41 13.75 12 13.75Z" />
<path d="M15 2.75H9C8.59 2.75 8.25 2.41 8.25 2C8.25 1.59 8.59 1.25 9 1.25H15C15.41 1.25 15.75 1.59 15.75 2C15.75 2.41 15.41 2.75 15 2.75Z" />
</svg>
